storage/app/icons/phosphoricons/thin/lock-key-open-thin.svg

<svg xmlns="http://www.w3.org/2000/svg" fill="currentColor" viewBox="0 0 256 256"><path d="M208 84H92V56a36 36 0 0 1 36-36c17.24 0 32.75 12.38 36.08 28.8a4 4 0 1 0 7.84-1.6C167.78 26.81 149.31 12 128 12a44.05 44.05 0 0 0-44 44v28H48a12 12 0 0 0-12 12v112a12 12 0 0 0 12 12h160a12 12 0 0 0 12-12V96a12 12 0 0 0-12-12m4 124a4 4 0 0 1-4 4H48a4 4 0 0 1-4-4V96a4 4 0 0 1 4-4h160a4 4 0 0 1 4 4Zm-84-92a24 24 0 0 0-4 47.66V184a4 4 0 0 0 8 0v-20.34a24 24 0 0 0-4-47.66m0 40a16 16 0 1 1 16-16 16 16 0 0 1-16 16"/></svg>

<svg xmlns="http://www.w3.org/2000/svg" viewBox="0 0 256 256" fill="currentColor"><path d="M208,84H92V56a36,36,0,0,1,36-36c17.24,0,32.75,12.38,36.08,28.8a4,4,0,1,0,7.84-1.6C167.78,26.81,149.31,12,128,12A44.05,44.05,0,0,0,84,56V84H48A12,12,0,0,0,36,96V208a12,12,0,0,0,12,12H208a12,12,0,0,0,12-12V96A12,12,0,0,0,208,84Zm4,124a4,4,0,0,1-4,4H48a4,4,0,0,1-4-4V96a4,4,0,0,1,4-4H208a4,4,0,0,1,4,4Zm-84-92a24,24,0,0,0-4,47.66V184a4,4,0,0,0,8,0V163.66A24,24,0,0,0,128,116Zm0,40a16,16,0,1,1,16-16A16,16,0,0,1,128,156Z"/></svg>
